X:353
T:Reel 353
M:4/4
K:Gmaj
L:1/8
dc|BGAF DGG2|B>c (3BAB e2Ag||BGAG EGD>E (3FGA |BcdB A2Gc:||2BGAF  (3GGA f2|c|BdAF G2|d2|g>f (3gfg fddf|gfge fdd2|gagg fgef||gfeg fgef|gbag fdef|gfge d2Bd|efef gfgedB|cBAG FGD2|
